dist/assets/img/corporulia/answerus/messages/message_1.svg

<svg width="500" height="319" viewBox="0 0 500 319" fill="none" xmlns="http://www.w3.org/2000/svg">
<g filter="url(#filter0_di_1445_48807)">
<path fill-rule="evenodd" clip-rule="evenodd" d="M236.736 266.648C334.486 267.989 398.168 245.833 436.423 214.699C474.678 183.564 463.289 100.017 423.604 66.4945C366.01 17.8438 142.31 16.3124 82.3383 61.8133C48.5163 87.4742 39.4309 154.302 52.7908 197.731C53.2759 199.308 53.3284 200.993 52.7662 202.544C49.8617 210.556 45.8301 213.759 40.2555 218.188C39.8211 218.533 39.9634 219.213 40.5098 219.308C44.3521 219.981 48.4942 218.942 52.206 217.274C56.0427 215.549 60.8091 216.618 63.2078 220.073C64.7244 222.258 66.345 224.272 68.0688 226.096C104.696 264.837 175.929 265.814 236.709 266.648L236.736 266.648Z" fill="white"/>
</g>
<defs>
<filter id="filter0_di_1445_48807" x="0" y="0.808594" width="499.936" height="317.897" filterUnits="userSpaceOnUse" color-interpolation-filters="sRGB">
<feFlood flood-opacity="0" result="BackgroundImageFix"/>
<feColorMatrix in="SourceAlpha" type="matrix" values="0 0 0 0 0 0 0 0 0 0 0 0 0 0 0 0 0 0 127 0" result="hardAlpha"/>
<feOffset dy="12"/>
<feGaussianBlur stdDeviation="20"/>
<feComposite in2="hardAlpha" operator="out"/>
<feColorMatrix type="matrix" values="0 0 0 0 0.909804 0 0 0 0 0.313726 0 0 0 0 0.470588 0 0 0 1 0"/>
<feBlend mode="normal" in2="BackgroundImageFix" result="effect1_dropShadow_1445_48807"/>
<feBlend mode="normal" in="SourceGraphic" in2="effect1_dropShadow_1445_48807" result="shape"/>
<feColorMatrix in="SourceAlpha" type="matrix" values="0 0 0 0 0 0 0 0 0 0 0 0 0 0 0 0 0 0 127 0" result="hardAlpha"/>
<feOffset dy="-4"/>
<feGaussianBlur stdDeviation="4"/>
<feComposite in2="hardAlpha" operator="arithmetic" k2="-1" k3="1"/>
<feColorMatrix type="matrix" values="0 0 0 0 0.909804 0 0 0 0 0.313726 0 0 0 0 0.470588 0 0 0 0.16 0"/>
<feBlend mode="normal" in2="shape" result="effect2_innerShadow_1445_48807"/>
</filter>
</defs>
</svg>

<svg width="500" height="319" viewBox="0 0 500 319" fill="none" xmlns="http://www.w3.org/2000/svg"><g filter="url(#filter0_di_1445_48807)"><path fill-rule="evenodd" clip-rule="evenodd" d="M236.736 266.648c97.75 1.341 161.432-20.815 199.687-51.949 38.255-31.135 26.866-114.682-12.819-148.204C366.01 17.844 142.31 16.312 82.338 61.813c-33.822 25.661-42.907 92.489-29.547 135.918.485 1.577.537 3.262-.025 4.813-2.904 8.012-6.936 11.215-12.51 15.644-.435.345-.293 1.025.254 1.12 3.842.673 7.984-.366 11.696-2.034 3.837-1.725 8.603-.656 11.002 2.799a51.532 51.532 0 004.86 6.023c36.628 38.741 107.861 39.718 168.641 40.552h.027z" fill="#fff"/></g><defs><filter id="filter0_di_1445_48807" x="0" y=".809" width="499.936" height="317.897" filterUnits="userSpaceOnUse" color-interpolation-filters="sRGB"><feFlood flood-opacity="0" result="BackgroundImageFix"/><feColorMatrix in="SourceAlpha" values="0 0 0 0 0 0 0 0 0 0 0 0 0 0 0 0 0 0 127 0" result="hardAlpha"/><feOffset dy="12"/><feGaussianBlur stdDeviation="20"/><feComposite in2="hardAlpha" operator="out"/><feColorMatrix values="0 0 0 0 0.909804 0 0 0 0 0.313726 0 0 0 0 0.470588 0 0 0 1 0"/><feBlend in2="BackgroundImageFix" result="effect1_dropShadow_1445_48807"/><feBlend in="SourceGraphic" in2="effect1_dropShadow_1445_48807" result="shape"/><feColorMatrix in="SourceAlpha" values="0 0 0 0 0 0 0 0 0 0 0 0 0 0 0 0 0 0 127 0" result="hardAlpha"/><feOffset dy="-4"/><feGaussianBlur stdDeviation="4"/><feComposite in2="hardAlpha" operator="arithmetic" k2="-1" k3="1"/><feColorMatrix values="0 0 0 0 0.909804 0 0 0 0 0.313726 0 0 0 0 0.470588 0 0 0 0.16 0"/><feBlend in2="shape" result="effect2_innerShadow_1445_48807"/></filter></defs></svg>
